packages/kaspersky-hexa-ui-icons/src/iconsSVGs/32/DownloadFull.svg

<svg xmlns="http://www.w3.org/2000/svg" width="32" height="32" fill="none" viewBox="0 0 32 32"><path fill="#000" fill-rule="evenodd" d="M9.9864 12.1644C10.4225 9.5477 12.5827 7 16 7s5.5775 2.5477 6.0136 5.1644A1 1 0 0 0 23 13c2.7614 0 5 2.2386 5 5s-2.2386 5-5 5h-1c0 .7158-.2546 1.4317-.7638 2H23c3.866 0 7-3.134 7-7 0-3.5907-2.7036-6.55-6.1862-6.9532C22.9704 7.9363 20.2264 5 16 5s-6.9703 2.9363-7.8138 6.0468C4.7036 11.45 2 14.4093 2 18c0 3.866 3.134 7 7 7h1.7638C10.2546 24.4317 10 23.7158 10 23H9c-2.7614 0-5-2.2386-5-5s2.2386-5 5-5a1 1 0 0 0 .9864-.8356m6.7207 14.5427 3-3c.3905-.3905.3905-1.0237 0-1.4142s-1.0237-.3905-1.4142 0L17 23.5858V15c0-.5523-.4477-1-1-1s-1 .4477-1 1v8.5858l-1.2929-1.2929c-.3905-.3905-1.0237-.3905-1.4142 0s-.3905 1.0237 0 1.4142l3 3c.3905.3905 1.0237.3905 1.4142 0"/></svg>

<svg width="32" height="32" viewBox="0 0 32 32" fill="none" xmlns="http://www.w3.org/2000/svg">
<path d="M9.98639 12.1644C10.4225 9.54774 12.5827 7 16 7C19.4173 7 21.5775 9.54774 22.0136 12.1644C22.094 12.6466 22.5112 13 23 13C25.7614 13 28 15.2386 28 18C28 20.7614 25.7614 23 23 23H22C22 23.7158 21.7454 24.4317 21.2362 25H23C26.866 25 30 21.866 30 18C30 14.4093 27.2964 11.45 23.8138 11.0468C22.9704 7.93628 20.2264 5 16 5C11.7736 5 9.02965 7.93628 8.18617 11.0468C4.70358 11.45 2 14.4093 2 18C2 21.866 5.13401 25 9 25H10.7638C10.2546 24.4317 10 23.7158 10 23H9C6.23858 23 4 20.7614 4 18C4 15.2386 6.23858 13 9 13C9.48884 13 9.90603 12.6466 9.98639 12.1644Z" fill="black"/>
<path d="M19.7071 23.7071L16.7071 26.7071C16.3166 27.0976 15.6834 27.0976 15.2929 26.7071L12.2929 23.7071C11.9024 23.3166 11.9024 22.6834 12.2929 22.2929C12.6834 21.9024 13.3166 21.9024 13.7071 22.2929L15 23.5858V15C15 14.4477 15.4477 14 16 14C16.5523 14 17 14.4477 17 15V23.5858L18.2929 22.2929C18.6834 21.9024 19.3166 21.9024 19.7071 22.2929C20.0976 22.6834 20.0976 23.3166 19.7071 23.7071Z" fill="black"/>
</svg>
